X: 345
T: THE BOY FROM THE TOP OF THE WORLD
T: Buacaillua uachdar an domhain
B: O'Neill's 345
M: 3/4
L: 1/8
Z: 1999 by John Chambers <jc@trillian.mit.edu>
N: "Slow"
N: "Collected by F.O'Neill"
N: Bar 12 doesn't add up.
K:D
f>e \
|.d2 A2 B2|.d2 A2 B2|c3 edc|B3 cdB \
|BAGFEF|D2 F2 A2|B2 d2 .f2|He4 fe|
|d2 A2 B2|.d2 A2 B2|Tc3 edc|B3 c2 ed/c/d/B/ \
|BAGFEF|D2 F2 A2|GB3 gec|d4||
||3def \
|g2 g2 a/g/f/e/|f2 f2 g/f/e/d/|ed ef de|B3 cdB \
|BAGFEF|D2 F2 .A2|B2 d2 .d2|d4 ef|
|Tgf gb ag|Tfe fa gf|ed ef g/e/f/d/|B3 cdB \
|BAGFEF|D2 F2 A2|B3 d d2|d4||
